src/svg/11-flags/flag-ch.svg

<svg xmlns="http://www.w3.org/2000/svg" width="640" height="480"><g fill="none" fill-rule="evenodd"><path fill="#D52B1E" d="M0 0h640v480H0z"/><path fill="#FFF" d="M275 195H170v90h105v105h90V285h105v-90H365V90h-90v105z"/></g></svg>

<?xml version="1.0" encoding="UTF-8" standalone="no"?>
<svg width="640px" height="480px" viewBox="0 0 640 480" version="1.1" xmlns="http://www.w3.org/2000/svg" xmlns:xlink="http://www.w3.org/1999/xlink">
    <g stroke="none" stroke-width="1" fill="none" fill-rule="evenodd">
        <rect id="Rectangle-path" fill="#D52B1E" x="0" y="0" width="640" height="480"></rect>
        <path d="M275,195 L170,195 L170,285 L275,285 L275,390 L365,390 L365,285 L470,285 L470,195 L365,195 L365,90 L275,90 L275,195 L275,195 Z" id="Rectangle-path" fill="#FFFFFF"></path>
    </g>
</svg>
